X:1
T:Title
%%score 1 2
L:1/8
Q:1/4=115
M:4/4
K:G
V:1 treble nm="Grand Piano, Staff 1"
V:2 bass nm="Choir Pad, Bruce, 75.75"
V:1
 D2 [DB]2 [GB]2 [Gd]2 | [Fd]2 [Fc]2 [Fc]4 | D2 [DF]2 [FA]2 [Dc]2 | [DB]8 | D2 [DB]2 [DB]2 [=Fd]2 | %5
w: By~Anonymous * * *|||||
 [Ed]2 [Ec]2 [CE]4 | [B,D]2 [DB]2 [CB]2 [CA]2 | [B,G]8 |] %8
w: |||
V:2
 [G,B,]2 [G,D]2 [G,D]2 [G,B,]2 | A,2 [A,D]2 [A,D]4 | [F,A,]2 [D,A,]2 [D,C]2 [F,A,]2 | [G,D]8 | %4
 [G,B,]2 G,2 G,2 [B,,G,]2 | [C,G,]2 [C,G,]2 [C,G,]4 | [D,G,]2 D,2 [D,E,]2 [D,F,]2 | [G,,G,]8 |] %8

